src/icons/dapp/aescan.svg

<svg viewBox="0 0 40 40" fill="none" xmlns="http://www.w3.org/2000/svg">
<path fill-rule="evenodd" clip-rule="evenodd" d="M20.1021 0.5L15.5148 3.13828L28.3588 10.3488L28.4644 5.25445L20.1021 0.5ZM3.12141 15.6296V10.353L11.5337 5.51626L15.9613 8.15451L3.12141 15.6296ZM36.8652 24.5548V29.8314L28.5507 34.6682L24.1746 32.03L36.8652 24.5548ZM24.3009 36.9222L19.6791 39.5L11.3806 34.6359L11.5537 29.5435L24.3009 36.9222ZM3.01164 29.5797L7.61348 32.2263L7.51498 17.3986L3 19.8954L3.01164 29.5797ZM32.3865 7.7486L36.9883 10.3952L37 20.0796L32.485 22.5763L32.3865 7.7486ZM19.9937 11.0202L12.7527 15.2589L19.9191 19.3489L27.0855 15.2589L19.9937 11.0202ZM21.1493 21.5067L28.3904 17.2681V25.6711L21.1493 29.7611V21.5067ZM11.3807 17.3487L11.5133 25.7141L18.7228 29.783L18.72 21.4909L11.3807 17.3487Z" fill="#F5274E"/>
</svg>

<svg viewBox="0 0 40 40" fill="none" xmlns="http://www.w3.org/2000/svg"><path fill-rule="evenodd" clip-rule="evenodd" d="m20.102.5-4.587 2.638 12.844 7.21.105-5.094L20.102.5zM3.122 15.63v-5.277l8.412-4.837 4.427 2.639-12.84 7.475zm33.743 8.925v5.276l-8.314 4.837-4.376-2.638 12.69-7.475zM24.301 36.922 19.679 39.5l-8.298-4.864.173-5.093 12.747 7.38zM3.01 29.58l4.602 2.646L7.515 17.4 3 19.895l.012 9.685zM32.387 7.749l4.602 2.646L37 20.08l-4.515 2.496-.099-14.827zM19.994 11.02l-7.241 4.239 7.166 4.09 7.166-4.09-7.091-4.239zm1.155 10.487 7.241-4.239v8.403l-7.24 4.09v-8.254zm-9.768-4.158.132 8.365 7.21 4.069-.003-8.292-7.34-4.142z" fill="#F5274E"/></svg>
